public_html/image/pieces/blue_player.svg

<svg width="528" height="637pt" viewBox="0 0 396 637" xmlns="http://www.w3.org/2000/svg"><path fill="#528685" d="M184.36 8.75c7.98-2.57 16.41-1.58 24.64-1.77 4.61-.14 9.15.81 13.65 1.69 1.66.27 3.33.54 4.97.97 1.32.32 2.64.65 3.95 1.01 1 .34 2 .68 3 1.01 12.96 4.55 25.24 11.17 35.89 19.87 3.75 3.6 8.23 6.45 11.11 10.88 5.34 5.3 9.59 11.6 12.77 18.41 5.92 12.05 12.89 23.86 15.65 37.15 2.03 8.51 2.24 17.28 2 25.99.69 14.95-2.42 29.81-7.05 43.96-3.18 9.97-9.76 18.46-12.95 28.42 1.87 1.33 3.78 2.62 5.69 3.91 6.56 2.48 12.68 5.99 18.96 9.11 7.65 4.05 14.04 9.9 20.46 15.6 7.07 7.91 14.42 15.67 20.2 24.65 5.29 8.21 10.55 16.49 14.57 25.42 4.34 10.48 7.5 21.51 8.45 32.85 1.11 4.61.61 9.38.68 14.07-.08 8.36.14 16.72-.07 25.08-1.26 11.32-3.38 22.61-7.19 33.37-1.2 2.4-2.38 4.8-3.63 7.18-.08.44-.25 1.31-.34 1.74-2.91 4.32-4.93 9.16-7.95 13.41-6.55 9.45-16.19 16.05-25.41 22.65-4.52 3.49-10.01 5.43-14.43 9.04 2.18 11.09 5.03 22.07 6.69 33.27.21 1.2.42 2.41.63 3.63.4 1.66.73 3.35 1.08 5.04 1.74 11.66 4.78 23.09 6.68 34.73 2.83 13.96 5.59 27.93 8.65 41.84 1.89 9.21 2.05 18.72 4.41 27.84 3.45 11.76 6.83 23.94 5.71 36.33-1.4 7.15-6.91 13.21-13.68 15.73-5.69.46-11.47-.4-17.09.95-10 .52-20.04.02-30.05.2-8.45.47-16.75-1.5-25.2-1.2-7.4-1.98-16.5-.28-22.36-6.22-4.69-3.79-6.59-9.65-9.29-14.81-3.05-5.97-5.27-12.3-8-18.41l-.24-1.81c-.61-1.03-1.23-2.05-1.84-3.07l-.24-1.81c-1.17-2.31-2.32-4.63-3.17-7.07-2.09-4.36-3.5-9.06-6.19-13.12-3.7-5.99-6.52-12.48-8.54-19.21-3.07-8.62-5.05-18.34-12.16-24.7-1.88.45-3.74.97-5.59 1.5-4.82 8.46-9.71 16.9-15.32 24.87-5.89 7.67-9.19 16.88-13.7 25.35-4.52 12.06-8.86 24.21-13.55 36.22-3.32 7.73-6.51 17.09-15.14 20.3-1.03.25-2.05.51-3.08.8-1.03.42-2.05.86-3.07 1.32-4.84.22-9.8-.53-14.52.88-9.24.72-18.6-.7-27.76 1.03-5.08.4-10.19.25-15.28-.04-2.77-.93-5.74-.66-8.58-1.18-2.63-.88-4.86-2.6-7.15-4.11-2.97-4.13-7.48-7.44-8.81-12.53-.42-6.97-.64-14.06.75-20.93 3.29-15.24 4.66-30.82 8.12-46.03 4.09-19.12 5.94-38.63 10.1-57.72 4.26-16.43 6.43-33.27 9.51-49.92-8.16-4.1-16.77-7.5-24.1-13.05-6.02-4.64-9.92-11.29-15-16.83-4.14-5.03-8.28-10.16-11.07-16.09-4.55-9.94-7.59-20.55-9-31.39-.98-8.64-.36-17.34-.56-26-.47-9.14 1.71-18.13 4.11-26.87 2.92-7.39 5.39-14.93 7.63-22.54 1.59-6.06 5.32-11.15 8.28-16.56 6.5-12.88 14.36-25.21 24.32-35.7 5.88-5.81 11.62-11.76 17.48-17.6 6.61-5.8 13.7-11.09 21.41-15.34-.56-4.05-2.11-7.87-4.38-11.25-9.38-16.61-15.44-35.09-17.67-54.03-.41-5.69-.06-11.4-.15-17.1.06-4.56-.44-9.19.59-13.69 1.65-10.57 4.52-21.15 10.44-30.2 7.8-12.04 14.47-25.08 24.85-35.19 4.47-4.87 9.77-8.86 15.16-12.64 14.05-8.72 29.47-15.13 45.55-19.01.44-.14 1.33-.43 1.78-.57 2.06-.63 4.22-.83 6.29-1.45 1.22-.2 2.45-.35 3.69-.51m.62 4.18c-24.16 4.93-48.22 13.69-67.24 29.8-11.42 9.69-18.31 23.24-26.39 35.58-7.03 10.66-11.47 23.04-12.59 35.77-2.07 20.99 3.51 41.98 12.12 60.97 2.48 5.44 5.68 10.52 8.08 16 1.86 4.34 1.9 9.13 2 13.76-15.11 7.86-27.14 20.2-38.63 32.52-10.28 10.55-17.83 23.35-24.64 36.31-2.39 4.65-5.42 8.99-7.18 13.95-2.05 5.7-3.27 11.67-5.61 17.27-3.6 8.07-4.5 16.96-6.37 25.52-.66 16.97 1.12 34.43 7.8 50.2 3.43 8.31 8.99 15.49 14.77 22.28 4.31 5 8.01 10.65 13.39 14.61 7.39 5.49 16.02 8.9 24 13.37-1.53 9.08-3.32 18.11-4.58 27.23-2.1 16.17-7.09 31.79-9.15 47.97-2.08 15.96-5.28 31.74-8.3 47.55-2.33 11.86-3.54 23.92-6.09 35.76-.73 5.06-2.29 10.87.75 15.5 2.51 3.73 5.43 7.27 9.04 9.99 3.38 2.56 7.72 3.17 11.84 3.24 15.35.49 30.68-.64 46.01-1.08 6.77-.26 13.94-.58 19.94-4.09 3.84-2.22 5.97-6.29 7.83-10.15 8.87-18.44 13.48-38.68 23.34-56.68 4.51-9.44 11.71-17.2 16.56-26.43 1.94-3.31 3.51-6.94 6.24-9.7 2.52-2.56 7.03-1.62 8.86 1.3 8.07 11.15 8.83 25.63 15.77 37.36 10.71 18.24 15.4 39.34 26.44 57.42 2.39 4.06 6.3 7.3 11.03 8.11 24.75 4.62 50.03 2.86 75.05 2.9 4.77-.01 9.96-.04 13.93-3.09 4.11-3.11 8.18-7.49 8.26-12.96.17-10.08-3.58-19.62-5.89-29.29-2.07-8.22-2.12-16.76-3.8-25.05-6.07-28.71-11.46-57.55-16.99-86.37-1.78-12.84-5.88-25.23-7.39-38.12 10.71-5.91 21.42-12.1 30.39-20.52 9.54-8.06 15.84-19.18 20.55-30.58 7.65-18.24 9.43-38.35 8.48-57.94-1.11-18.91-6.98-37.53-17.16-53.53-12.45-21.02-28.59-41.04-50.79-52.24-7.37-4.03-16.06-6.06-21.92-12.44 1.88-7.46 5.76-14.14 9.22-20.94 5.26-9.85 8.26-20.72 10.53-31.6 4.02-20.12 2.8-41.8-6.47-60.36-6.45-12.8-11.56-26.83-22.03-37.05-11.71-12.31-26.4-21.55-42.16-27.75-16.15-5.86-33.95-7.98-50.85-4.28z"/><path fill="#7DC1C0" d="M184.98 12.93c16.9-3.7 34.7-1.58 50.85 4.28 15.76 6.2 30.45 15.44 42.16 27.75 10.47 10.22 15.58 24.25 22.03 37.05 9.27 18.56 10.49 40.24 6.47 60.36-2.27 10.88-5.27 21.75-10.53 31.6-3.46 6.8-7.34 13.48-9.22 20.94 5.86 6.38 14.55 8.41 21.92 12.44 22.2 11.2 38.34 31.22 50.79 52.24 10.18 16 16.05 34.62 17.16 53.53.95 19.59-.83 39.7-8.48 57.94-4.71 11.4-11.01 22.52-20.55 30.58-8.97 8.42-19.68 14.61-30.39 20.52 1.51 12.89 5.61 25.28 7.39 38.12 5.53 28.82 10.92 57.66 16.99 86.37 1.68 8.29 1.73 16.83 3.8 25.05 2.31 9.67 6.06 19.21 5.89 29.29-.08 5.47-4.15 9.85-8.26 12.96-3.97 3.05-9.16 3.08-13.93 3.09-25.02-.04-50.3 1.72-75.05-2.9-4.73-.81-8.64-4.05-11.03-8.11-11.04-18.08-15.73-39.18-26.44-57.42-6.94-11.73-7.7-26.21-15.77-37.36-1.83-2.92-6.34-3.86-8.86-1.3-2.73 2.76-4.3 6.39-6.24 9.7-4.85 9.23-12.05 16.99-16.56 26.43-9.86 18-14.47 38.24-23.34 56.68-1.86 3.86-3.99 7.93-7.83 10.15-6 3.51-13.17 3.83-19.94 4.09-15.33.44-30.66 1.57-46.01 1.08-4.12-.07-8.46-.68-11.84-3.24-3.61-2.72-6.53-6.26-9.04-9.99-3.04-4.63-1.48-10.44-.75-15.5 2.55-11.84 3.76-23.9 6.09-35.76 3.02-15.81 6.22-31.59 8.3-47.55 2.06-16.18 7.05-31.8 9.15-47.97 1.26-9.12 3.05-18.15 4.58-27.23-7.98-4.47-16.61-7.88-24-13.37-5.38-3.96-9.08-9.61-13.39-14.61-5.78-6.79-11.34-13.97-14.77-22.28-6.68-15.77-8.46-33.23-7.8-50.2 1.87-8.56 2.77-17.45 6.37-25.52 2.34-5.6 3.56-11.57 5.61-17.27 1.76-4.96 4.79-9.3 7.18-13.95 6.81-12.96 14.36-25.76 24.64-36.31 11.49-12.32 23.52-24.66 38.63-32.52-.1-4.63-.14-9.42-2-13.76-2.4-5.48-5.6-10.56-8.08-16-8.61-18.99-14.19-39.98-12.12-60.97 1.12-12.73 5.56-25.11 12.59-35.77 8.08-12.34 14.97-25.89 26.39-35.58 19.02-16.11 43.08-24.87 67.24-29.8z"/></svg>

<?xml version="1.0" encoding="UTF-8" ?>
<!DOCTYPE svg PUBLIC "-//W3C//DTD SVG 1.1//EN" "http://www.w3.org/Graphics/SVG/1.1/DTD/svg11.dtd">
<svg width="396pt" height="637pt" viewBox="0 0 396 637" version="1.1" xmlns="http://www.w3.org/2000/svg">
<path fill="#528685" opacity="1.00" d=" M 184.36 8.75 C 192.34 6.18 200.77 7.17 209.00 6.98 C 213.61 6.84 218.15 7.79 222.65 8.67 C 224.31 8.94 225.98 9.21 227.62 9.64 C 228.94 9.96 230.26 10.29 231.57 10.65 C 232.57 10.99 233.57 11.33 234.57 11.66 C 247.53 16.21 259.81 22.83 270.46 31.53 C 274.21 35.13 278.69 37.98 281.57 42.41 C 286.91 47.71 291.16 54.01 294.34 60.82 C 300.26 72.87 307.23 84.68 309.99 97.97 C 312.02 106.48 312.23 115.25 311.99 123.96 C 312.68 138.91 309.57 153.77 304.94 167.92 C 301.76 177.89 295.18 186.38 291.99 196.34 C 293.86 197.67 295.77 198.96 297.68 200.25 C 304.24 202.73 310.36 206.24 316.64 209.36 C 324.29 213.41 330.68 219.26 337.10 224.96 C 344.17 232.87 351.52 240.63 357.30 249.61 C 362.59 257.82 367.85 266.10 371.87 275.03 C 376.21 285.51 379.37 296.54 380.32 307.88 C 381.43 312.49 380.93 317.26 381.00 321.95 C 380.92 330.31 381.14 338.67 380.93 347.03 C 379.67 358.35 377.55 369.64 373.74 380.40 C 372.54 382.80 371.36 385.20 370.11 387.58 C 370.03 388.02 369.86 388.89 369.77 389.32 C 366.86 393.64 364.84 398.48 361.82 402.73 C 355.27 412.18 345.63 418.78 336.41 425.38 C 331.89 428.87 326.40 430.81 321.98 434.42 C 324.16 445.51 327.01 456.49 328.67 467.69 C 328.88 468.89 329.09 470.10 329.30 471.32 C 329.70 472.98 330.03 474.67 330.38 476.36 C 332.12 488.02 335.16 499.45 337.06 511.09 C 339.89 525.05 342.65 539.02 345.71 552.93 C 347.60 562.14 347.76 571.65 350.12 580.77 C 353.57 592.53 356.95 604.71 355.83 617.10 C 354.43 624.25 348.92 630.31 342.15 632.83 C 336.46 633.29 330.68 632.43 325.06 633.78 C 315.06 634.30 305.02 633.80 295.01 633.98 C 286.56 634.45 278.26 632.48 269.81 632.78 C 262.41 630.80 253.31 632.50 247.45 626.56 C 242.76 622.77 240.86 616.91 238.16 611.75 C 235.11 605.78 232.89 599.45 230.16 593.34 C 230.10 592.89 229.98 591.99 229.92 591.53 C 229.31 590.50 228.69 589.48 228.08 588.46 C 228.02 588.01 227.90 587.10 227.84 586.65 C 226.67 584.34 225.52 582.02 224.67 579.58 C 222.58 575.22 221.17 570.52 218.48 566.46 C 214.78 560.47 211.96 553.98 209.94 547.25 C 206.87 538.63 204.89 528.91 197.78 522.55 C 195.90 523.00 194.04 523.52 192.19 524.05 C 187.37 532.51 182.48 540.95 176.87 548.92 C 170.98 556.59 167.68 565.80 163.17 574.27 C 158.65 586.33 154.31 598.48 149.62 610.49 C 146.30 618.22 143.11 627.58 134.48 630.79 C 133.45 631.04 132.43 631.30 131.40 631.59 C 130.37 632.01 129.35 632.45 128.33 632.91 C 123.49 633.13 118.53 632.38 113.81 633.79 C 104.57 634.51 95.21 633.09 86.05 634.82 C 80.97 635.22 75.86 635.07 70.77 634.78 C 68.00 633.85 65.03 634.12 62.19 633.60 C 59.56 632.72 57.33 631.00 55.04 629.49 C 52.07 625.36 47.56 622.05 46.23 616.96 C 45.81 609.99 45.59 602.90 46.98 596.03 C 50.27 580.79 51.64 565.21 55.10 550.00 C 59.19 530.88 61.04 511.37 65.20 492.28 C 69.46 475.85 71.63 459.01 74.71 442.36 C 66.55 438.26 57.94 434.86 50.61 429.31 C 44.59 424.67 40.69 418.02 35.61 412.48 C 31.47 407.45 27.33 402.32 24.54 396.39 C 19.99 386.45 16.95 375.84 15.54 365.00 C 14.56 356.36 15.18 347.66 14.98 339.00 C 14.51 329.86 16.69 320.87 19.09 312.13 C 22.01 304.74 24.48 297.20 26.72 289.59 C 28.31 283.53 32.04 278.44 35.00 273.03 C 41.50 260.15 49.36 247.82 59.32 237.33 C 65.20 231.52 70.94 225.57 76.80 219.73 C 83.41 213.93 90.50 208.64 98.21 204.39 C 97.65 200.34 96.10 196.52 93.83 193.14 C 84.45 176.53 78.39 158.05 76.16 139.11 C 75.75 133.42 76.10 127.71 76.01 122.01 C 76.07 117.45 75.57 112.82 76.60 108.32 C 78.25 97.75 81.12 87.17 87.04 78.12 C 94.84 66.08 101.51 53.04 111.89 42.93 C 116.36 38.06 121.66 34.07 127.05 30.29 C 141.10 21.57 156.52 15.16 172.60 11.28 C 173.04 11.14 173.93 10.85 174.38 10.71 C 176.44 10.08 178.60 9.88 180.67 9.26 C 181.89 9.06 183.12 8.91 184.36 8.75 M 184.98 12.93 C 160.82 17.86 136.76 26.62 117.74 42.73 C 106.32 52.42 99.43 65.97 91.35 78.31 C 84.32 88.97 79.88 101.35 78.76 114.08 C 76.69 135.07 82.27 156.06 90.88 175.05 C 93.36 180.49 96.56 185.57 98.96 191.05 C 100.82 195.39 100.86 200.18 100.96 204.81 C 85.85 212.67 73.82 225.01 62.33 237.33 C 52.05 247.88 44.50 260.68 37.69 273.64 C 35.30 278.29 32.27 282.63 30.51 287.59 C 28.46 293.29 27.24 299.26 24.90 304.86 C 21.30 312.93 20.40 321.82 18.53 330.38 C 17.87 347.35 19.65 364.81 26.33 380.58 C 29.76 388.89 35.32 396.07 41.10 402.86 C 45.41 407.86 49.11 413.51 54.49 417.47 C 61.88 422.96 70.51 426.37 78.49 430.84 C 76.96 439.92 75.17 448.95 73.91 458.07 C 71.81 474.24 66.82 489.86 64.76 506.04 C 62.68 522.00 59.48 537.78 56.46 553.59 C 54.13 565.45 52.92 577.51 50.37 589.35 C 49.64 594.41 48.08 600.22 51.12 604.85 C 53.63 608.58 56.55 612.12 60.16 614.84 C 63.54 617.40 67.88 618.01 72.00 618.08 C 87.35 618.57 102.68 617.44 118.01 617.00 C 124.78 616.74 131.95 616.42 137.95 612.91 C 141.79 610.69 143.92 606.62 145.78 602.76 C 154.65 584.32 159.26 564.08 169.12 546.08 C 173.63 536.64 180.83 528.88 185.68 519.65 C 187.62 516.34 189.19 512.71 191.92 509.95 C 194.44 507.39 198.95 508.33 200.78 511.25 C 208.85 522.40 209.61 536.88 216.55 548.61 C 227.26 566.85 231.95 587.95 242.99 606.03 C 245.38 610.09 249.29 613.33 254.02 614.14 C 278.77 618.76 304.05 617.00 329.07 617.04 C 333.84 617.03 339.03 617.00 343.00 613.95 C 347.11 610.84 351.18 606.46 351.26 600.99 C 351.43 590.91 347.68 581.37 345.37 571.70 C 343.30 563.48 343.25 554.94 341.57 546.65 C 335.50 517.94 330.11 489.10 324.58 460.28 C 322.80 447.44 318.70 435.05 317.19 422.16 C 327.90 416.25 338.61 410.06 347.58 401.64 C 357.12 393.58 363.42 382.46 368.13 371.06 C 375.78 352.82 377.56 332.71 376.61 313.12 C 375.50 294.21 369.63 275.59 359.45 259.59 C 347.00 238.57 330.86 218.55 308.66 207.35 C 301.29 203.32 292.60 201.29 286.74 194.91 C 288.62 187.45 292.50 180.77 295.96 173.97 C 301.22 164.12 304.22 153.25 306.49 142.37 C 310.51 122.25 309.29 100.57 300.02 82.01 C 293.57 69.21 288.46 55.18 277.99 44.96 C 266.28 32.65 251.59 23.41 235.83 17.21 C 219.68 11.35 201.88 9.23 184.98 12.93 Z" />
<path fill="#7DC1C0" opacity="1.00" d=" M 184.98 12.93 C 201.88 9.23 219.68 11.35 235.83 17.21 C 251.59 23.41 266.28 32.65 277.99 44.96 C 288.46 55.18 293.57 69.21 300.02 82.01 C 309.29 100.57 310.51 122.25 306.49 142.37 C 304.22 153.25 301.22 164.12 295.96 173.97 C 292.50 180.77 288.62 187.45 286.74 194.91 C 292.60 201.29 301.29 203.32 308.66 207.35 C 330.86 218.55 347.00 238.57 359.45 259.59 C 369.63 275.59 375.50 294.21 376.61 313.12 C 377.56 332.71 375.78 352.82 368.13 371.06 C 363.42 382.46 357.12 393.58 347.58 401.64 C 338.61 410.06 327.90 416.25 317.19 422.16 C 318.70 435.05 322.80 447.44 324.58 460.28 C 330.11 489.10 335.50 517.94 341.57 546.65 C 343.25 554.94 343.30 563.48 345.37 571.70 C 347.68 581.37 351.43 590.91 351.26 600.99 C 351.18 606.46 347.11 610.84 343.00 613.95 C 339.03 617.00 333.84 617.03 329.07 617.04 C 304.05 617.00 278.77 618.76 254.02 614.14 C 249.29 613.33 245.38 610.09 242.99 606.03 C 231.95 587.95 227.26 566.85 216.55 548.61 C 209.61 536.88 208.85 522.40 200.78 511.25 C 198.95 508.33 194.44 507.39 191.92 509.95 C 189.19 512.71 187.62 516.34 185.68 519.65 C 180.83 528.88 173.63 536.64 169.12 546.08 C 159.26 564.08 154.65 584.32 145.78 602.76 C 143.92 606.62 141.79 610.69 137.95 612.91 C 131.95 616.42 124.78 616.74 118.01 617.00 C 102.68 617.44 87.35 618.57 72.00 618.08 C 67.88 618.01 63.54 617.40 60.16 614.84 C 56.55 612.12 53.63 608.58 51.12 604.85 C 48.08 600.22 49.64 594.41 50.37 589.35 C 52.92 577.51 54.13 565.45 56.46 553.59 C 59.48 537.78 62.68 522.00 64.76 506.04 C 66.82 489.86 71.81 474.24 73.91 458.07 C 75.17 448.95 76.96 439.92 78.49 430.84 C 70.51 426.37 61.88 422.96 54.49 417.47 C 49.11 413.51 45.41 407.86 41.10 402.86 C 35.32 396.07 29.76 388.89 26.33 380.58 C 19.65 364.81 17.87 347.35 18.53 330.38 C 20.40 321.82 21.30 312.93 24.90 304.86 C 27.24 299.26 28.46 293.29 30.51 287.59 C 32.27 282.63 35.30 278.29 37.69 273.64 C 44.50 260.68 52.05 247.88 62.33 237.33 C 73.82 225.01 85.85 212.67 100.96 204.81 C 100.86 200.18 100.82 195.39 98.96 191.05 C 96.56 185.57 93.36 180.49 90.88 175.05 C 82.27 156.06 76.69 135.07 78.76 114.08 C 79.88 101.35 84.32 88.97 91.35 78.31 C 99.43 65.97 106.32 52.42 117.74 42.73 C 136.76 26.62 160.82 17.86 184.98 12.93 Z" />
</svg>
